X:666
T: MARIA DIE WOLLT WANDERN
N: E2058
O: Europa, Mitteleuropa, Deutschland, Fulda
R: geistlich, Marien - Lied, Legende
M: 4/4
L: 1/8
K: F
C2 | F2F2G2c2 | A3GF2
c2 | B2B2A2c2 | G4z2
c2 | c2A2cBG2 | A3Bc2
A2 | c2A2cBG2 | F4z2

